places/48/user-home.svg

<?xml version="1.0" encoding="UTF-8" standalone="no"?>
<!-- Created with Inkscape (http://www.inkscape.org/) -->

<svg
   xmlns:dc="http://purl.org/dc/elements/1.1/"
   xmlns:cc="http://creativecommons.org/ns#"
   xmlns:rdf="http://www.w3.org/1999/02/22-rdf-syntax-ns#"
   xmlns:svg="http://www.w3.org/2000/svg"
   xmlns="http://www.w3.org/2000/svg"
   xmlns:xlink="http://www.w3.org/1999/xlink"
   xmlns:sodipodi="http://sodipodi.sourceforge.net/DTD/sodipodi-0.dtd"
   xmlns:inkscape="http://www.inkscape.org/namespaces/inkscape"
   width="48px"
   height="48px"
   id="svg20096"
   version="1.1"
   inkscape:version="0.48.3.1 r9886"
   sodipodi:docname="user-home.svg">
  <defs
     id="defs20098">
    <linearGradient
       inkscape:collect="always"
       xlink:href="#linearGradient3454-2-8-6-1-1-8-0-6"
       id="linearGradient3381-56-2-7-5-0-8-0-0"
       gradientUnits="userSpaceOnUse"
       gradientTransform="matrix(0.89189031,0,0,1.0580283,3.1206609,5.3536023)"
       x1="42.470848"
       y1="11.952797"
       x2="42.470848"
       y2="35.581654" />
    <linearGradient
       id="linearGradient3454-2-8-6-1-1-8-0-6">
      <stop
         offset="0"
         style="stop-color:#ffffff;stop-opacity:1"
         id="stop3456-4-7-9-4-0-3-6-2" />
      <stop
         offset="0.0097359"
         style="stop-color:#ffffff;stop-opacity:0.23529412"
         id="stop3458-39-0-8-61-3-8-9-0" />
      <stop
         offset="0.99001008"
         style="stop-color:#ffffff;stop-opacity:0.15686275"
         id="stop3460-7-5-4-1-6-6-6-2" />
      <stop
         offset="1"
         style="stop-color:#ffffff;stop-opacity:0.39215687"
         id="stop3462-0-5-6-6-2-1-6-0" />
    </linearGradient>
    <linearGradient
       inkscape:collect="always"
       xlink:href="#linearGradient6129-963-697-142-998-580-273-0-8-4-9-0-0-0"
       id="linearGradient3072-0-3-0-7-4-8-7"
       gradientUnits="userSpaceOnUse"
       gradientTransform="matrix(1.1446925,0,0,0.9977536,-3.4660851,1.0988289)"
       x1="22.934725"
       y1="49.629246"
       x2="22.809399"
       y2="36.657963" />
    <linearGradient
       id="linearGradient6129-963-697-142-998-580-273-0-8-4-9-0-0-0">
      <stop
         id="stop2661-3-02-4-8-0-4-3"
         style="stop-color:#0a0a0a;stop-opacity:0.498"
         offset="0" />
      <stop
         id="stop2663-2-8-06-2-4-6-4"
         style="stop-color:#0a0a0a;stop-opacity:0"
         offset="1" />
    </linearGradient>
    <linearGradient
       inkscape:collect="always"
       xlink:href="#linearGradient4632-0-6-4"
       id="linearGradient4638-4-6-8-9-9-5-8"
       x1="35.792694"
       y1="17.118193"
       x2="35.792694"
       y2="43.761127"
       gradientUnits="userSpaceOnUse"
       gradientTransform="matrix(1,0,0,1.0357143,1.4880025e-5,-1.5891011)" />
    <linearGradient
       id="linearGradient4632-0-6-4">
      <stop
         style="stop-color:#b4cee1;stop-opacity:1;"
         offset="0"
         id="stop4634-4-4-7" />
      <stop
         style="stop-color:#5d9fcd;stop-opacity:1;"
         offset="1"
         id="stop4636-3-1-5" />
    </linearGradient>
    <radialGradient
       inkscape:collect="always"
       xlink:href="#linearGradient5060-820-9-0-7-1-7-7-1"
       id="radialGradient3080-2-3-9-9-8-8-9"
       gradientUnits="userSpaceOnUse"
       gradientTransform="matrix(-0.03079083,0,0,0.02470588,23.389815,31.941629)"
       cx="605.71429"
       cy="486.64789"
       fx="605.71429"
       fy="486.64789"
       r="117.14286" />
    <linearGradient
       id="linearGradient5060-820-9-0-7-1-7-7-1">
      <stop
         id="stop2681-5-4-3-6-3-8-2"
         style="stop-color:#000000;stop-opacity:1"
         offset="0" />
      <stop
         id="stop2683-8-6-9-4-6-6-2"
         style="stop-color:#000000;stop-opacity:0"
         offset="1" />
    </linearGradient>
    <radialGradient
       inkscape:collect="always"
       xlink:href="#linearGradient5060-179-2-0-3-6-2-2-8"
       id="radialGradient3083-4-5-6-4-5-0-5"
       gradientUnits="userSpaceOnUse"
       gradientTransform="matrix(0.03079083,0,0,0.02470588,24.610215,31.941629)"
       cx="605.71429"
       cy="486.64789"
       fx="605.71429"
       fy="486.64789"
       r="117.14286" />
    <linearGradient
       id="linearGradient5060-179-2-0-3-6-2-2-8">
      <stop
         id="stop2675-9-9-4-1-4-4-9"
         style="stop-color:#000000;stop-opacity:1"
         offset="0" />
      <stop
         id="stop2677-1-7-2-6-1-8-3"
         style="stop-color:#000000;stop-opacity:0"
         offset="1" />
    </linearGradient>
    <linearGradient
       inkscape:collect="always"
       xlink:href="#linearGradient5048-585-4-0-56-2-5-2-1"
       id="linearGradient3086-4-4-0-5-5-7-4"
       gradientUnits="userSpaceOnUse"
       gradientTransform="matrix(0.07938856,0,0,0.02470588,-4.6932851,31.941629)"
       x1="302.85715"
       y1="366.64789"
       x2="302.85715"
       y2="609.50507" />
    <linearGradient
       id="linearGradient5048-585-4-0-56-2-5-2-1">
      <stop
         id="stop2667-5-0-7-4-7-7-2"
         style="stop-color:#000000;stop-opacity:0"
         offset="0" />
      <stop
         id="stop2669-4-1-8-0-6-9-3"
         style="stop-color:#000000;stop-opacity:1"
         offset="0.5" />
      <stop
         id="stop2671-2-6-3-2-0-6-0"
         style="stop-color:#000000;stop-opacity:0"
         offset="1" />
    </linearGradient>
    <linearGradient
       inkscape:collect="always"
       xlink:href="#linearGradient4507-9-2-2-3-6-9-9"
       id="linearGradient3381-5-5-29-4-6-5-0-4"
       gradientUnits="userSpaceOnUse"
       gradientTransform="matrix(0.89189031,0,0,1.0580283,3.1207247,5.3535889)"
       x1="21.37039"
       y1="4.2476678"
       x2="21.37039"
       y2="34.143417" />
    <linearGradient
       id="linearGradient4507-9-2-2-3-6-9-9">
      <stop
         id="stop4509-9-8-4-2-3-4-5"
         style="stop-color:#ffffff;stop-opacity:1"
         offset="0" />
      <stop
         id="stop4511-7-50-2-1-3-9-4"
         style="stop-color:#ffffff;stop-opacity:0.23529412"
         offset="0.07395859" />
      <stop
         id="stop4513-2-0-2-9-2-6-2"
         style="stop-color:#ffffff;stop-opacity:0.15686275"
         offset="0.99001008" />
      <stop
         id="stop4515-3-9-8-6-6-0-7"
         style="stop-color:#ffffff;stop-opacity:0.39215687"
         offset="1" />
    </linearGradient>
    <linearGradient
       inkscape:collect="always"
       xlink:href="#linearGradient4646-6-91-5-0-5-8-4"
       id="linearGradient3089-5-2-9-8-6-8-0-7-1"
       gradientUnits="userSpaceOnUse"
       gradientTransform="translate(-50.940885,-1.1095734e-5)"
       x1="62.988873"
       y1="13"
       x2="62.988873"
       y2="16" />
    <linearGradient
       id="linearGradient4646-6-91-5-0-5-8-4">
      <stop
         offset="0"
         style="stop-color:#f9f9f9;stop-opacity:1"
         id="stop4648-2-4-6-6-8-7-1" />
      <stop
         offset="1"
         style="stop-color:#d8d8d8;stop-opacity:1"
         id="stop4650-3-8-5-3-4-5-7" />
    </linearGradient>
    <linearGradient
       id="linearGradient3104-8-8-97-4-6-2-0-1-4-0-5-8">
      <stop
         offset="0"
         style="stop-color:#000000;stop-opacity:0.32173914"
         id="stop3106-5-4-3-5-0-1-61-9-2-7-3-3" />
      <stop
         offset="1"
         style="stop-color:#000000;stop-opacity:0.27826086"
         id="stop3108-4-3-7-8-2-4-01-9-9-0-6-4" />
    </linearGradient>
    <linearGradient
       y2="3.6336823"
       x2="-51.786404"
       y1="53.514328"
       x1="-51.786404"
       gradientTransform="matrix(0.80749834,0,0,0.83374395,106.87671,-0.0698511)"
       gradientUnits="userSpaceOnUse"
       id="linearGradient20094"
       xlink:href="#linearGradient3104-8-8-97-4-6-2-0-1-4-0-5-8"
       inkscape:collect="always" />
  </defs>
  <sodipodi:namedview
     id="base"
     pagecolor="#ffffff"
     bordercolor="#666666"
     borderopacity="1.0"
     inkscape:pageopacity="0.0"
     inkscape:pageshadow="2"
     inkscape:zoom="7"
     inkscape:cx="24"
     inkscape:cy="24"
     inkscape:current-layer="layer1"
     showgrid="true"
     inkscape:grid-bbox="true"
     inkscape:document-units="px"
     inkscape:window-width="1280"
     inkscape:window-height="752"
     inkscape:window-x="0"
     inkscape:window-y="26"
     inkscape:window-maximized="1" />
  <metadata
     id="metadata20101">
    <rdf:RDF>
      <cc:Work
         rdf:about="">
        <dc:format>image/svg+xml</dc:format>
        <dc:type
           rdf:resource="http://purl.org/dc/dcmitype/StillImage" />
        <dc:title></dc:title>
      </cc:Work>
    </rdf:RDF>
  </metadata>
  <g
     id="layer1"
     inkscape:label="Layer 1"
     inkscape:groupmode="layer">
    <path
       inkscape:connector-curvature="0"
       style="opacity:0.8;color:#000000;fill:none;stroke:url(#linearGradient20094);stroke-width:1;stroke-linecap:butt;stroke-linejoin:miter;stroke-miterlimit:4;stroke-opacity:1;stroke-dasharray:none;stroke-dashoffset:0;marker:none;visibility:visible;display:inline;overflow:visible;enable-background:accumulate"
       d="m 5.5000147,8.4999887 c -0.554,0 -1,0.446 -1,1 l 0,2.0000003 -1,0 c -0.554,0 -1,0.446 -1,1 l 0,6 c 0,0.554 0.446,1 1,1 l 40.9999903,0 c 0.554,0 1,-0.446 1,-1 l 0,-6 c 0,-0.554 -0.446,-1 -1,-1 l -22.99999,0 0,-2.0000003 c 0,-0.554 -0.446,-1 -1,-1 l -15.0000003,0 z"
       id="rect4251-0-0-1-1-9-5-2-3" />
    <path
       inkscape:connector-curvature="0"
       style="color:#000000;fill:url(#linearGradient3089-5-2-9-8-6-8-0-7-1);fill-opacity:1;fill-rule:nonzero;stroke:none;stroke-width:0.99992168;marker:none;visibility:visible;display:inline;overflow:visible;enable-background:accumulate"
       d="m 5.5000147,8.9999887 c -0.277,0 -0.5,0.223 -0.5,0.5 l 0,2.5000003 -1.5,0 c -0.277,0 -0.5,0.223 -0.5,0.5 l 0,6 c 0,0.277 0.223,0.5 0.5,0.5 l 40.9999903,0 c 0.277,0 0.5,-0.223 0.5,-0.5 l 0,-6 c 0,-0.277 -0.223,-0.5 -0.5,-0.5 l -23.49999,0 0,-2.5000003 c 0,-0.277 -0.223,-0.5 -0.5,-0.5 l -15.0000003,0 z"
       id="rect4251-4-7-62-4-4-9-2" />
    <path
       inkscape:connector-curvature="0"
       style="color:#000000;fill:none;stroke:url(#linearGradient3381-5-5-29-4-6-5-0-4);stroke-width:1;stroke-linecap:round;stroke-linejoin:round;stroke-miterlimit:4;stroke-opacity:1;stroke-dasharray:none;stroke-dashoffset:0;marker:none;visibility:visible;display:inline;overflow:visible;enable-background:accumulate"
       d="m 5.5000147,9.4999887 0,3.0000003 -2,0 0,7 40.9999903,0 0,-7 -23.99999,0 0,-3.0000003 -15.0000003,0 z"
       id="rect4251-9-9-0-05-2-0-5-9" />
    <rect
       style="opacity:0.3;fill:url(#linearGradient3086-4-4-0-5-5-7-4);fill-opacity:1;fill-rule:nonzero;stroke:none;stroke-width:1;marker:none;visibility:visible;display:inline;overflow:visible"
       id="rect4173-6-7-7-3-5-1-4"
       y="41"
       x="4.8333788"
       height="6.0000005"
       width="38.333332" />
    <path
       style="opacity:0.3;fill:url(#radialGradient3083-4-5-6-4-5-0-5);fill-opacity:1;fill-rule:nonzero;stroke:none;stroke-width:1;marker:none;visibility:visible;display:inline;overflow:visible"
       id="path5058-7-9-1-3-0-3-4"
       inkscape:connector-curvature="0"
       d="m 43.166705,41.000199 c 0,0 0,5.99967 0,5.99967 1.5856,0.0113 3.8333,-1.34422 3.8333,-3.00022 0,-1.656 -1.7695,-2.99945 -3.8333,-2.99945 z" />
    <path
       style="opacity:0.3;fill:url(#radialGradient3080-2-3-9-9-8-8-9);fill-opacity:1;fill-rule:nonzero;stroke:none;stroke-width:1;marker:none;visibility:visible;display:inline;overflow:visible"
       id="path5018-8-1-1-6-9-4-9"
       inkscape:connector-curvature="0"
       d="m 4.8333147,41.000199 c 0,0 0,5.99967 0,5.99967 -1.5856,0.0113 -3.8333,-1.34422 -3.8333,-3.00022 0,-1.656 1.7695,-2.99945 3.8333,-2.99945 z" />
    <path
       style="fill:url(#linearGradient4638-4-6-8-9-9-5-8);fill-opacity:1;stroke:none"
       id="path3388-1-43-0-7-6-2-7"
       inkscape:connector-curvature="0"
       d="m 2.1626147,15.500179 c -1.0723,0.12829 -0.4996,1.45416 -0.5851,2.19974 0.1245,0.48182 0.9275,26.17643 0.9275,26.17643 0,0.7414 0.3517,0.61579 1.2429,0.61579 13.1886003,0 27.7726003,0 40.9610903,0 0.9601,0.0231 0.7572,0.0121 0.7572,-0.62748 0,0 0.993,-27.35421 1.0285,-27.7811 0,-0.44949 0.09,-0.58338 -0.4732,-0.58338 -14.08399,0 -29.77479,0 -43.8588903,0 z"
       sodipodi:nodetypes="ccsscccsc" />
    <path
       style="opacity:0.4;fill:url(#linearGradient3072-0-3-0-7-4-8-7);fill-opacity:1;stroke:none"
       id="path6127-7-1-6-4-8-5-0"
       inkscape:connector-curvature="0"
       d="m 2.0582147,16.065139 43.8964903,4e-4 c 0.6342,0 1.0452,0.44461 1.0452,0.99737 l -1.0324,26.96037 c 0.015,0.6994 -0.2091,0.97671 -0.9459,0.96204 l -41.7807903,-0.0176 c -0.6341,0 -1.2736,-0.41276 -1.2736,-0.96551 l -0.9541,-26.93932 c 0,-0.55276 0.411,-0.99775 1.0451,-0.99775 z" />
    <path
       sodipodi:type="inkscape:offset"
       inkscape:radius="-1.0151105"
       inkscape:original="M 2.15625 16.5 C 1.0839484 16.623862 1.6479947 17.905133 1.5625 18.625 C 1.6869357 19.090206 2.5 43.90625 2.5 43.90625 C 2.5 44.622082 2.8587963 44.5 3.75 44.5 L 44.71875 44.5 C 45.67883 44.52232 45.46875 44.492483 45.46875 43.875 C 45.46875 43.875 46.464479 17.474672 46.5 17.0625 C 46.5 16.628509 46.594572 16.5 46.03125 16.5 L 2.15625 16.5 z "
       style="opacity:0.5;color:#000000;fill:none;stroke:url(#linearGradient3381-56-2-7-5-0-8-0-0);stroke-width:0.98133707;stroke-linecap:round;stroke-linejoin:miter;stroke-miterlimit:4;stroke-opacity:1;stroke-dasharray:none;stroke-dashoffset:0;marker:none;visibility:visible;display:inline;overflow:visible;enable-background:accumulate"
       id="path4587-4-6-3-0-1-2-6"
       d="m 2.5,17.5 c 0.016793,0.176427 0.022163,0.517935 0.03125,0.875 0.023112,0.08641 0.025524,0.05923 0.03125,0.09375 0.011058,0.06665 0.027034,0.138257 0.03125,0.1875 0.0064,0.07474 -0.00668,0.173042 0,0.28125 0.013352,0.216416 0.045306,0.510844 0.0625,0.875 0.034388,0.728313 0.078083,1.708883 0.125,2.90625 0.093834,2.394734 0.2030642,5.55569 0.3125,8.6875 C 3.3060459,37.481691 3.4883163,43.143759 3.5,43.5 c 0.1225025,0.0036 0.071108,0 0.25,0 l 40.71875,0 c 0.0124,-0.328836 0.253182,-6.426721 0.5,-12.90625 0.126691,-3.325928 0.245386,-6.68527 0.34375,-9.21875 0.04918,-1.26674 0.09434,-2.331501 0.125,-3.09375 0.01322,-0.328618 0.02246,-0.572975 0.03125,-0.78125 L 2.5,17.5 z"
       transform="matrix(1,0,0,1.0383977,1.4880025e-5,-1.6703711)" />
    <path
       style="opacity:0.3;color:#000000;fill:#ffffff;fill-opacity:1;fill-rule:nonzero;stroke:none;stroke-width:1.70000005;marker:none;visibility:visible;display:inline;overflow:visible;enable-background:accumulate"
       id="path2998-0-1"
       inkscape:connector-curvature="0"
       d="m 24.000015,24.999989 -7.75,7.75 1.5,1.5 1.25,-1.25 0,6 4,0 0,-3 c 0,-0.554 0.446,-1 1,-1 0.554,0 1,0.446 1,1 l 0,3 4,0 0,-6 1.25,1.25 1.5,-1.5 -7.75,-7.75 z m 3,1 0,0.75 2,2 0,-2.75 -2,0 z" />
    <path
       style="color:#000000;fill:#175785;fill-opacity:0.5521628;fill-rule:nonzero;stroke:none;stroke-width:1.70000005;marker:none;visibility:visible;display:inline;overflow:visible;enable-background:accumulate"
       id="path2998-4"
       inkscape:connector-curvature="0"
       d="m 24.000015,23.999989 -7.75,7.75 1.5,1.5 1.25,-1.25 0,6 4,0 0,-3 c 0,-0.554 0.446,-1 1,-1 0.554,0 1,0.446 1,1 l 0,3 4,0 0,-6 1.25,1.25 1.5,-1.5 -7.75,-7.75 z m 3,1 0,0.75 2,2 0,-2.75 -2,0 z" />
    <path
       style="opacity:0.3;fill:none;stroke:#000000;stroke-width:1;stroke-linecap:round;stroke-linejoin:round;stroke-miterlimit:4;stroke-opacity:1;stroke-dashoffset:0"
       id="path3388-1-43-0-7-6-2-7-0"
       inkscape:connector-curvature="0"
       d="m 2.1626147,15.500179 c -1.0723,0.12829 -0.4996,1.45416 -0.5851,2.19974 0.1245,0.48182 0.9275,26.17643 0.9275,26.17643 0,0.7414 0.3517,0.61579 1.2429,0.61579 13.1886003,0 27.7726003,0 40.9610903,0 0.9601,0.0231 0.7572,0.0121 0.7572,-0.62748 0,0 0.993,-27.35421 1.0285,-27.7811 0,-0.44949 0.09,-0.58338 -0.4732,-0.58338 -14.08399,0 -29.77479,0 -43.8588903,0 z"
       sodipodi:nodetypes="ccsscccsc" />
  </g>
</svg>

<?xml version="1.0" encoding="UTF-8" standalone="no"?>
<!-- Created with Inkscape (http://www.inkscape.org/) -->

<svg
   xmlns:serif="http://www.serif.com/"
   xmlns:dc="http://purl.org/dc/elements/1.1/"
   xmlns:cc="http://creativecommons.org/ns#"
   xmlns:rdf="http://www.w3.org/1999/02/22-rdf-syntax-ns#"
   xmlns:svg="http://www.w3.org/2000/svg"
   xmlns="http://www.w3.org/2000/svg"
   xmlns:sodipodi="http://sodipodi.sourceforge.net/DTD/sodipodi-0.dtd"
   xmlns:inkscape="http://www.inkscape.org/namespaces/inkscape"
   width="48px"
   height="48px"
   id="svg20096"
   version="1.1"
   inkscape:version="0.92.4 5da689c313, 2019-01-14"
   sodipodi:docname="user-home.svg">
  <defs
     id="defs20098">
    <linearGradient
       id="linearGradient3454-2-8-6-1-1-8-0-6">
      <stop
         offset="0"
         style="stop-color:#ffffff;stop-opacity:1"
         id="stop3456-4-7-9-4-0-3-6-2" />
      <stop
         offset="0.0097359"
         style="stop-color:#ffffff;stop-opacity:0.23529412"
         id="stop3458-39-0-8-61-3-8-9-0" />
      <stop
         offset="0.99001008"
         style="stop-color:#ffffff;stop-opacity:0.15686275"
         id="stop3460-7-5-4-1-6-6-6-2" />
      <stop
         offset="1"
         style="stop-color:#ffffff;stop-opacity:0.39215687"
         id="stop3462-0-5-6-6-2-1-6-0" />
    </linearGradient>
    <linearGradient
       id="linearGradient6129-963-697-142-998-580-273-0-8-4-9-0-0-0">
      <stop
         id="stop2661-3-02-4-8-0-4-3"
         style="stop-color:#0a0a0a;stop-opacity:0.498"
         offset="0" />
      <stop
         id="stop2663-2-8-06-2-4-6-4"
         style="stop-color:#0a0a0a;stop-opacity:0"
         offset="1" />
    </linearGradient>
    <linearGradient
       id="linearGradient4632-0-6-4">
      <stop
         style="stop-color:#b4cee1;stop-opacity:1;"
         offset="0"
         id="stop4634-4-4-7" />
      <stop
         style="stop-color:#5d9fcd;stop-opacity:1;"
         offset="1"
         id="stop4636-3-1-5" />
    </linearGradient>
    <linearGradient
       id="linearGradient5060-820-9-0-7-1-7-7-1">
      <stop
         id="stop2681-5-4-3-6-3-8-2"
         style="stop-color:#000000;stop-opacity:1"
         offset="0" />
      <stop
         id="stop2683-8-6-9-4-6-6-2"
         style="stop-color:#000000;stop-opacity:0"
         offset="1" />
    </linearGradient>
    <linearGradient
       id="linearGradient5060-179-2-0-3-6-2-2-8">
      <stop
         id="stop2675-9-9-4-1-4-4-9"
         style="stop-color:#000000;stop-opacity:1"
         offset="0" />
      <stop
         id="stop2677-1-7-2-6-1-8-3"
         style="stop-color:#000000;stop-opacity:0"
         offset="1" />
    </linearGradient>
    <linearGradient
       id="linearGradient5048-585-4-0-56-2-5-2-1">
      <stop
         id="stop2667-5-0-7-4-7-7-2"
         style="stop-color:#000000;stop-opacity:0"
         offset="0" />
      <stop
         id="stop2669-4-1-8-0-6-9-3"
         style="stop-color:#000000;stop-opacity:1"
         offset="0.5" />
      <stop
         id="stop2671-2-6-3-2-0-6-0"
         style="stop-color:#000000;stop-opacity:0"
         offset="1" />
    </linearGradient>
    <linearGradient
       id="linearGradient4507-9-2-2-3-6-9-9">
      <stop
         id="stop4509-9-8-4-2-3-4-5"
         style="stop-color:#ffffff;stop-opacity:1"
         offset="0" />
      <stop
         id="stop4511-7-50-2-1-3-9-4"
         style="stop-color:#ffffff;stop-opacity:0.23529412"
         offset="0.07395859" />
      <stop
         id="stop4513-2-0-2-9-2-6-2"
         style="stop-color:#ffffff;stop-opacity:0.15686275"
         offset="0.99001008" />
      <stop
         id="stop4515-3-9-8-6-6-0-7"
         style="stop-color:#ffffff;stop-opacity:0.39215687"
         offset="1" />
    </linearGradient>
    <linearGradient
       id="linearGradient4646-6-91-5-0-5-8-4">
      <stop
         offset="0"
         style="stop-color:#f9f9f9;stop-opacity:1"
         id="stop4648-2-4-6-6-8-7-1" />
      <stop
         offset="1"
         style="stop-color:#d8d8d8;stop-opacity:1"
         id="stop4650-3-8-5-3-4-5-7" />
    </linearGradient>
    <linearGradient
       id="linearGradient3104-8-8-97-4-6-2-0-1-4-0-5-8">
      <stop
         offset="0"
         style="stop-color:#000000;stop-opacity:0.32173914"
         id="stop3106-5-4-3-5-0-1-61-9-2-7-3-3" />
      <stop
         offset="1"
         style="stop-color:#000000;stop-opacity:0.27826086"
         id="stop3108-4-3-7-8-2-4-01-9-9-0-6-4" />
    </linearGradient>
    <radialGradient
       id="_Radial9-4"
       cx="0"
       cy="0"
       r="1"
       gradientUnits="userSpaceOnUse"
       gradientTransform="matrix(87.4019,0,0,77.8688,292.70029,144.961)">
      <stop
         offset="0"
         style="stop-color:rgb(11,222,255);stop-opacity:1"
         id="stop34329-5" />
      <stop
         offset="1"
         style="stop-color:rgb(0,168,221);stop-opacity:1"
         id="stop34331-0" />
    </radialGradient>
    <radialGradient
       id="_Radial9-4-7"
       cx="0"
       cy="0"
       r="1"
       gradientUnits="userSpaceOnUse"
       gradientTransform="matrix(87.4019,0,0,77.8688,292.70029,144.961)">
      <stop
         offset="0"
         style="stop-color:rgb(11,222,255);stop-opacity:1"
         id="stop34329-5-9" />
      <stop
         offset="1"
         style="stop-color:rgb(0,168,221);stop-opacity:1"
         id="stop34331-0-2" />
    </radialGradient>
  </defs>
  <sodipodi:namedview
     id="base"
     pagecolor="#ffffff"
     bordercolor="#666666"
     borderopacity="1.0"
     inkscape:pageopacity="0.0"
     inkscape:pageshadow="2"
     inkscape:zoom="9.8994949"
     inkscape:cx="24.948395"
     inkscape:cy="19.95939"
     inkscape:current-layer="layer1"
     showgrid="true"
     inkscape:grid-bbox="true"
     inkscape:document-units="px"
     inkscape:window-width="1680"
     inkscape:window-height="991"
     inkscape:window-x="0"
     inkscape:window-y="30"
     inkscape:window-maximized="1" />
  <metadata
     id="metadata20101">
    <rdf:RDF>
      <cc:Work
         rdf:about="">
        <dc:format>image/svg+xml</dc:format>
        <dc:type
           rdf:resource="http://purl.org/dc/dcmitype/StillImage" />
        <dc:title />
      </cc:Work>
    </rdf:RDF>
  </metadata>
  <g
     id="layer1"
     inkscape:label="Layer 1"
     inkscape:groupmode="layer">
    <path
       style="opacity:0.8;color:#000000;fill:#c8c8c8;stroke:none;stroke-width:1;stroke-linecap:butt;stroke-linejoin:miter;stroke-miterlimit:4;stroke-opacity:1;stroke-dasharray:none;stroke-dashoffset:0;marker:none;visibility:visible;display:inline;overflow:visible;enable-background:accumulate;fill-opacity:1"
       d="M 5.5 8.5 C 4.946 8.5 4.5 8.946 4.5 9.5 L 4.5 11.5 L 3.5 11.5 C 2.946 11.5 2.5 11.946 2.5 12.5 L 2.5 18.5 C 2.5 19.054 2.946 19.5 3.5 19.5 L 44.5 19.5 C 45.054 19.5 45.5 19.054 45.5 18.5 L 45.5 12.5 C 45.5 11.946 45.054 11.5 44.5 11.5 L 21.5 11.5 L 21.5 9.5 C 21.5 8.946 21.054 8.5 20.5 8.5 L 5.5 8.5 z "
       id="rect4251-0-0-1-1-9-5-2-3" />
    <g
       style="clip-rule:evenodd;fill-rule:evenodd;stroke:#000000;stroke-width:0.12803584;stroke-miterlimit:4;stroke-dasharray:none;stroke-opacity:0.39215687"
       id="path3388-7-21"
       serif:id="path3388-7-2"
       transform="matrix(0.75520335,0,0,0.80774256,-207.42672,-95.680193)">
      <path
         d="m 276.99029,137.057 c -1.438,0.164 -0.87,1.86 -0.985,2.813 0.527,11.236 1.258,22.244 1.781,33.48 0.459,1.281 2.138,0.625 3.202,0.787 17.69,0 35.38,0 53.07,0 1.461,-0.141 0.853,-1.867 1.059,-2.855 0.526,-11.235 1.258,-22.244 1.781,-33.479 -0.337,-1.266 -2.238,-0.562 -3.235,-0.746 -18.891,0 -37.782,0 -56.673,0 z"
         style="fill:url(#_Radial9-4-7);fill-rule:nonzero;stroke:#000000;stroke-width:0.12803584;stroke-miterlimit:4;stroke-dasharray:none;stroke-opacity:0.39215687"
         id="path31381"
         inkscape:connector-curvature="0" />
    </g>
    <path
       style="color:#000000;display:inline;overflow:visible;visibility:visible;fill:#175f85;fill-opacity:0.55216283;fill-rule:nonzero;stroke:none;stroke-width:1.70000005;marker:none;enable-background:accumulate"
       id="path2998-4"
       inkscape:connector-curvature="0"
       d="m 24.000015,23.999989 -7.75,7.75 1.5,1.5 1.25,-1.25 v 6 h 10 v -6 l 1.25,1.25 1.5,-1.5 z"
       sodipodi:nodetypes="cccccccccc" />
  </g>
</svg>
